X:1
T:Poor Jack
T:Danny Elfman
%%score 1 { ( 2 3 ) | 4 }
L:1/8
Q:1/4=60
M:3/4
K:C
V:1 treble nm="Voice" snm="Vo."
V:2 treble nm="Piano" snm="Pno."
V:3 treble 
V:4 bass 
V:1
 F_G F2 _E2 | F_G F2 _E2 | F_B _A2 z2 | Fc _A2 z2 | Bd c2 z2 | Bd c2 z2 | _d2 c2 z2 | _B2 _A2 z2 | %8
w: What have I done?|What have I done?|How could I|be so blind?|All is lost,|where was I?|Spoiled all,|spoiled all,|
 _G_B _A2 z2 | _G_B F2 z2 | F_G F2 _E2 | F_G F2 _E2 |[M:4/4] F_G_A_B- BAAG | F_G_Ac _BAAG | %14
w: ev- 'ry- thing's|gone all wrong.|What have I done?|What have I done?|Find a deep cave _ to hide in.|In a mil- lion years they'll find me,|
[M:3/4] ^F=G _B4 | C_E D4 |[M:4/4] D_EFE D2 D2 | G,4[Q:1/4=100]"^Faster" z2 BB || BB z B BBBB | %19
w: on- ly dust|and a plaque|that reads "Here lies poor old|Jack!" But I|nev- er in- tend- ed all this|
 BB z2 BB z B | B2 BB BBBB | B2 BB BB z B |[Q:1/4=112] BBBB BBBB |[Q:1/4=124] BBBB B2 B,^C | %24
w: mad- ness, nev- er. And|no- bod- y real- ly un- der-|stood, (well how could they?) that|all I ev- er want- ed was to|bring them some- thing great. Why does|
[Q:1/4=132] ^DD^CB, CCB,^A, | ^G,2 z2[Q:1/4=120] ^F4 |[Q:1/4=120]"^March-like" B2 d2 ^ccB^A | %27
w: noth- ing ev- er turn out like it|should? Well,|what the heck, I went and|
 B2 d2 ^c2 B^A | B^DDD DDB,^C | ^D2 z2 z2 z ^c/^d/ | e2 e2 ^dd^cd | e2 e2 _e2 _de | ff_e_d eedc | %33
w: did my best. And, by|God, I real- ly tast- ed some- thing|swell. For a|mo- ment, why, I e- ven|touched the sky. And at|least I left some sto- ries they can|
 _B2 F2 _B,2 _dd/d/ | _e2 e2 _dddd | _e2 e2 _d2 dd | f2 ff _e2 ee | _d2 d2 c2 z c | _d4 f2 z _B | %39
w: tell. I did! And, for the|first time since I don't re-|mem- ber when, I'd felt|just like my old bon- y|self a- gain. And|I, Jack, the|
 _B2 A2 G2 z2 |"_Spoken: That's right! I am the Pumpkin King!" z8 | z4 z2 AB | c2 c2 BBAB | %43
w: pump- kin King!||And I|just can't wait un- til next|
 c2 c2 B2 AB | ^ccBc dd=cd | eede f2 ff | f2 f2 eede | ffef g2[Q:1/4=30] !fermata!z2 | %48
w: Hal- low- een 'cause I've|got some new i- de- as that will|real- ly make them scream. And, by|God, I'm real- ly gon- na|give it all my might!|
[Q:1/4=80]"^Slow""_Spoken: Uh - oh!" z4 z2 z B | BB B2 B2 z B | %50
w: I|hope there's still time to|
 B2 B2 B2"_Spoken: Sandy Claws... mmmmm" z2 | !fermata!z8 |] %52
w: set things right!||
V:2
 F_G F2 _E2 | F_G F2 _E2 | F_B _A2 _D_E | Fc _A2 _D_E | Bd c4 | Bd c4 | [_B_d]2 [_Ac]4 | %7
 [_DF_B]2 [CF_A]4 | _G_B [CF_A]4 |!>(! _G_B [CF]4!>)! | F_G F2 _E2 | F_G F2 _E2 | %12
[M:4/4]!<(! F_G_A_B- BAAG | F_G_Ac _BAA!mp!G!<)! | %14
[M:3/4]!<(! [^F^f][=G=g]!<)!!mf! [_B_b]/a/g/d/ [FB]/A/G/D/ | [^F,A,C]_E [F,A,D]4 | %16
[M:4/4]!ff! D_EFE [G,A,D]2 [^F,A,D]2 |[K:bass] [_B,,D,G,]4 z2[K:treble]!mf! dd || %18
 [Ace]2 [Ace][Ac] [Ace][Ac][Ace][Ad] | e2 f2 e2 d2 |!<(! [=GBe]2 [GB][GB] [GB][GB][GB][GBe]!<)! | %21
!f! [Gc_eg]6 !>![Gceg] z |!mf! [^CE^G]8 | [B,^D^G]6 B,^C | ^DD^CB, CCB,^A, | ^G,2 z2 [^CE]4 | %26
 B2 [^FBd]2 ^cc[D=GB]^A | B2 [EBd]2 ^c2 [^CEB]^A | B^D[B,D]D DD[^G,B,]^C | %29
 ^D^^F^A^d [FAd]2 z ^c/d/ | e2 [^G^ce]2 ^dd[^FAc]d | e2 [G_B^ce]2 [_A=c_e]2 [B_d][ce] | %32
 [_df][df][c_e][_Bd] [ce][ce][Bd][Ac] | [_DF_B]2 !>!F2 !>!_B,2!p! _d"_sub."d/d/ | _e2 e2 _dddd | %35
 _c2 c2 _B2 BB | f2 ff _e2 ee | _d2 d2 [FAc]3 c |!<(! [G_B_d]4!<)!!sfz! [FBdf]2 z !>!B | %39
 !>!_B2 !>!A2 !>!G2!mp! g2 | e2 d2 _B2 G2 | _B2 d2 [Ace]2!f! A=B | c2 [EAc]2 BB[^D^FA]B | %43
 c2 [FAc]2 [E^GB]2 [^FA][GB] | [A^c]c[^GB][Ac] dd[F_A=c]d | [EAce]2 [EAce]2 [F_Acf]2 [FAcf][FAcf] | %46
 [F_B_df]2 [FBdf]2 [EGBde]2 [EGBde]2 | [F_B_df]2 [FBdf]2!>(! (!fermata![GB=dg]4!>)! | g8) | %49
 !arpeggio![G_B^ce]2 !arpeggio![GBce]2 !arpeggio![^F=B^d]2 !arpeggio![FBd]2 | %50
 !arpeggio![EGB]2 !arpeggio![EGB]2 !arpeggio![^FAc_e]4- | !fermata![FAce]8 |] %52
V:3
 _B,6 | _B,6 | [_B,_D]2 [C_E]2 x2 | _D2 [C_E]2 x2 | E2 F2 _E2 | =E2 z _A FC | F4 _E2 | x6 | %8
 _D2 x4 | _D2 x4 | _B,6 | _B,6 |[M:4/4] _D3 [D_F]- [DF]2 [DF][C_E] | _D2 [D_F]2 [D_G]2 [C_E]2 | %14
[M:3/4] x6 | x6 |[M:4/4] x8 |[K:bass] x6[K:treble] x2 || x8 | [^GB]8 | x8 | x8 | x8 | x8 | x8 | %25
 x4 ^AB/A/ ^GA | x8 | x8 | x8 | x8 | x8 | x8 | x8 | x8 | [FA]4 [_G_B]4 | [_E_A]4 [^C=EG]4 | %36
 [F_B_d]4 [^FAc]4 | [F_B]4 x4 | x8 | x8 | x8 | x8 | x8 | x8 | x8 | x8 | x8 | x8 | x8 | g4 ^f4 | %50
 e4 x4 | x8 |] %52
V:4
!p!"^darkly" _B,,6 | _B,,6 | _B,,6 | _B,,6 | E,2 C,2 _B,,2 | E,2 C,4 | _B,,2 C,C, _D,_A,, | %7
 _B,,2 C,C, _D,_A,, | _B,,2 C,C, _D,_A,, |"^dim." _B,,2 C,C, _D,!pp!_A,, | %10
!p!"^darkly" _B,,2 B,,_D, C,_A,, | _B,,2 B,,_D, B,,_G,, |[M:4/4]"^cresc." _B,,3 B,,- B,,2 B,,=A,, | %13
 _B,,C, _D,2 B,,2 =A,,2 |[M:3/4] _B,,A,, G,,2 [D,,D,]2 | [_E,,_E,][C,,C,] [D,,D,]4 | %16
[M:4/4]"^heavily" [D,,D,][_E,,_E,][F,,F,][E,,E,] [D,,D,]2 [D,,D,]2 |!8vb(! [G,,,G,,]4!8vb)! z4 || %18
 E/C/A,/E,/ E/C/A,/E,/ E/C/A,/E,/ E/C/A,/E,/ | E/B,/^G,/E,/ E/B,/G,/E,/ E/B,/G,/E,/ E/B,/G,/E,/ | %20
"^cresc." E/B,/=G,/E,/ E/B,/=G,/E,/ E/B,/=G,/E,/ E/B,/=G,/E,/ | [C,C]2 [_E,_E]2 [D,D]2 !>![C,C] z | %22
"^accel." [^G,,^G,]2 [G,,G,][G,,G,] [E,,E,][E,,E,][E,,E,][^F,,^F,] | %23
 [^G,,^G,]2 [^D,,^D,]2 [D,,D,]2 B,,^C, | ^D,D,^C,B,, C,C,B,,^A,, | ^G,,2 z2 [^F,,^F,]4 | %26
 [B,,,B,,]2 z2 =G,,2 z2 | [E,,E,][^F,,^F,][G,,G,][E,,E,] [F,,F,]2 z2 | ^G,,2 z2 [^D,,^D,]2 z2 | %29
 ^D,^A,,^^F,,A,, ^D,,2 z2 | [^C,,^C,]2 z2 [^F,,^F,]2 z2 | %31
 [G,,G,][E,,E,][^C,,^C,][_B,,,_B,,] [_A,,,_A,,]2 z2 | [_B,,,_B,,]2 [F,_B,_D]2 F,,F,,G,,A,, | %33
 _B,,2 [F,,F,]2 [_B,,,B,,]2 z2 | z CA,F, z _B,_G,_D, | z _A,_E,_C, z G,=E,^C, | %36
 _B,,_D,F,_B, C,^F,A,C | _D,F,_B,_D z4 | z G,,_B,,_D, F,2 z !>![B,,_B,] | %39
 !>![_B,,_B,]2 !>![A,,A,]2 !>![G,,G,]2 G,/_B,/D/E/ | %40
 G,/_B,/D/E/ G,/_B,/D/E/ G,/_B,/D/E/ G,/_B,/D/E/ | G,/_B,/D/E/ G,/_B,/D/E/ [C,E,A,]2 z2 | %42
 [A,,,A,,]2 z2 [B,,,B,,]2 z2 | F,,A,,C,F, E,2 E,,2 | ^F,,2 ^F,2 _A,,2 _A,2 | C,2 =A,,2 F,,2 F,,,2 | %46
 [_B,,,_B,,]2 [F,_B,_D]2 G,,2 [E,G,B,D]2 | [_D,,_D,]2 [_B,,,_B,,]2 !fermata![G,,,G,,]4 |!pp! z8 | %49
 z8 | z4 z2 z [_E,,_E,] |!<(! !///-!!fermata!A,,,4!<)!!ppp!!mf!!>(! A,,4!>)! |] %52

